X: 39363
T: Tammienorrie, The
R: reel
M: 4/4
K: Dmajor
D4E|:F2dF GBAF|Ec cAGEC2|F2dF GBAF|
EA,A,B, CDEG|F2dF GBAF|Ec cAGEC2|
D2B,C DCDE|1 FAGED4:|2 FAGED2ag||
|:f2fe fgaf|edcB A2F2|GB (3BBB GBdf|
edcBA2ag|f2fe fgaf|edcB A2F2|
GBdf edcB|1 Addc deag:|2 Addc dBAG||

